components/Common/Svg/svgs/titledNuxt.svg

<svg
  width="186"
  height="104"
  viewBox="0 0 186 104"
  fill="none"
  xmlns="http://www.w3.org/2000/svg"
>
  <path
    d="M72.178 94H70.54L63.952 83.974V94H62.314V81.31H63.952L70.54 91.354V81.31H72.178V94ZM83.596 84.118V94H81.958V91.678C81.706 92.482 81.256 93.1 80.608 93.532C79.972 93.952 79.228 94.162 78.376 94.162C77.236 94.162 76.312 93.796 75.604 93.064C74.896 92.32 74.542 91.258 74.542 89.878V84.118H76.18V89.716C76.18 90.7 76.432 91.462 76.936 92.002C77.44 92.53 78.124 92.794 78.988 92.794C79.888 92.794 80.608 92.506 81.148 91.93C81.688 91.342 81.958 90.49 81.958 89.374V84.118H83.596ZM91.9083 94L89.3343 90.22L87.0123 94H85.1943L88.4343 88.906L85.1763 84.118H87.0483L89.5503 87.79L91.8363 84.118H93.6543L90.4323 89.086L93.7803 94H91.9083ZM100.024 92.56V94H98.8001C97.7921 94 97.0361 93.76 96.5321 93.28C96.0401 92.8 95.7941 91.996 95.7941 90.868V85.54H94.3181V84.118H95.7941V81.652H97.4501V84.118H100.006V85.54H97.4501V90.904C97.4501 91.54 97.5641 91.978 97.7921 92.218C98.0321 92.446 98.4401 92.56 99.0161 92.56H100.024ZM112.644 81.31V90.742C112.644 91.786 112.344 92.614 111.744 93.226C111.156 93.826 110.328 94.126 109.26 94.126C108.108 94.126 107.202 93.79 106.542 93.118C105.894 92.434 105.57 91.48 105.57 90.256H107.208C107.208 90.988 107.37 91.57 107.694 92.002C108.018 92.422 108.516 92.632 109.188 92.632C109.824 92.632 110.286 92.452 110.574 92.092C110.862 91.732 111.006 91.282 111.006 90.742V81.31H112.644ZM123.217 90.706C123.217 91.306 123.073 91.864 122.785 92.38C122.497 92.896 122.059 93.316 121.471 93.64C120.883 93.964 120.157 94.126 119.293 94.126C118.453 94.126 117.703 93.976 117.043 93.676C116.395 93.364 115.873 92.944 115.477 92.416C115.093 91.876 114.871 91.264 114.811 90.58H116.557C116.593 90.94 116.713 91.294 116.917 91.642C117.133 91.978 117.433 92.26 117.817 92.488C118.213 92.704 118.687 92.812 119.239 92.812C119.959 92.812 120.511 92.62 120.895 92.236C121.279 91.852 121.471 91.36 121.471 90.76C121.471 90.244 121.333 89.824 121.057 89.5C120.793 89.176 120.463 88.924 120.067 88.744C119.671 88.552 119.131 88.348 118.447 88.132C117.643 87.868 116.995 87.622 116.503 87.394C116.023 87.154 115.609 86.8 115.261 86.332C114.925 85.864 114.757 85.246 114.757 84.478C114.757 83.818 114.913 83.236 115.225 82.732C115.549 82.228 116.005 81.838 116.593 81.562C117.193 81.286 117.895 81.148 118.699 81.148C119.947 81.148 120.937 81.454 121.669 82.066C122.401 82.666 122.827 83.434 122.947 84.37H121.183C121.087 83.866 120.829 83.422 120.409 83.038C119.989 82.654 119.419 82.462 118.699 82.462C118.039 82.462 117.511 82.636 117.115 82.984C116.719 83.32 116.521 83.8 116.521 84.424C116.521 84.916 116.647 85.318 116.899 85.63C117.163 85.93 117.487 86.17 117.871 86.35C118.255 86.518 118.783 86.71 119.455 86.926C120.271 87.19 120.925 87.442 121.417 87.682C121.921 87.922 122.347 88.288 122.695 88.78C123.043 89.26 123.217 89.902 123.217 90.706Z"
    fill="#A0A0A0"
  ></path>
  <path
    d="M74.1281 10.0596C74.2531 10.1899 74.3507 10.3439 74.4153 10.5126C74.4799 10.6812 74.5101 10.8611 74.5041 11.0416V29.9197C74.5093 30.1199 74.4748 30.319 74.4027 30.5058C74.3306 30.6925 74.2222 30.8632 74.0838 31.0078C73.9457 31.1528 73.7786 31.2671 73.5934 31.3433C73.4083 31.4195 73.2091 31.4559 73.009 31.4502C72.7821 31.4506 72.5567 31.4147 72.3411 31.344C72.1436 31.2832 71.9662 31.1701 71.8278 31.0167L59.5979 15.0932V30.0834C59.6086 30.4352 59.4791 30.7768 59.238 31.0331C58.9968 31.2894 58.6637 31.4395 58.3119 31.4502C58.285 31.451 58.258 31.451 58.2311 31.4502C58.052 31.4571 57.8734 31.4259 57.7072 31.3588C57.5411 31.2917 57.3909 31.1902 57.2668 31.0609C57.1431 30.9308 57.0466 30.7773 56.9828 30.6095C56.919 30.4417 56.8893 30.2628 56.8953 30.0834V11.1654C56.8907 10.966 56.9277 10.7679 57.0039 10.5837C57.08 10.3994 57.1937 10.233 57.3376 10.095C57.4723 9.95678 57.6343 9.84806 57.8132 9.77572C57.9921 9.70338 58.1841 9.669 58.3771 9.67475C58.6225 9.67359 58.8659 9.72017 59.0936 9.81191C59.3008 9.89207 59.4826 10.0265 59.62 10.2011L71.7971 26.16V11.0416C71.7918 10.8674 71.8208 10.6938 71.8826 10.5309C71.9443 10.3679 72.0376 10.2187 72.157 10.0918C72.2764 9.96486 72.4197 9.8627 72.5786 9.79115C72.7375 9.71959 72.9089 9.68004 73.0831 9.67475C73.1101 9.67399 73.1371 9.67399 73.164 9.67475C73.3427 9.66817 73.5207 9.699 73.6868 9.76526C73.8528 9.83153 74.0032 9.93177 74.1282 10.0596H74.1281ZM99.2518 10.0596C99.5164 10.3536 99.656 10.7391 99.6411 11.1344V23.0771C99.6664 24.6207 99.2915 26.1446 98.553 27.5003C97.8535 28.7793 96.8141 29.8401 95.5496 30.5656C94.2393 31.3174 92.7518 31.7052 91.2412 31.689C89.7172 31.7131 88.2139 31.3331 86.8844 30.5877C85.6142 29.8653 84.5698 28.804 83.8678 27.5224C83.1292 26.1667 82.7543 24.6428 82.7796 23.0991V11.1565C82.7739 10.9564 82.8104 10.7572 82.8866 10.5721C82.9628 10.3869 83.0771 10.2198 83.222 10.0817C83.3697 9.9372 83.5448 9.82365 83.737 9.7477C83.9292 9.67175 84.1346 9.63494 84.3412 9.63941C84.5359 9.63958 84.7285 9.67881 84.9077 9.75478C85.087 9.83075 85.2491 9.94192 85.3846 10.0817C85.528 10.2173 85.6414 10.3814 85.7176 10.5635C85.7938 10.7456 85.831 10.9415 85.827 11.1388V23.0815C85.811 24.1011 86.0692 25.1062 86.5745 25.9919C87.0426 26.8172 87.7211 27.5037 88.5408 27.9815C89.3605 28.4594 90.2921 28.7115 91.241 28.7122C92.2107 28.7191 93.1653 28.4721 94.0099 27.9957C94.862 27.5248 95.5711 26.8325 96.0623 25.9919C96.5757 25.109 96.8388 24.1027 96.823 23.0815V11.1388C96.8087 10.7468 96.9412 10.3635 97.1946 10.064C97.3237 9.91952 97.4828 9.80505 97.6609 9.72864C97.8389 9.65223 98.0316 9.61574 98.2252 9.62173C98.4176 9.61725 98.6087 9.65398 98.7857 9.72946C98.9627 9.80493 99.1215 9.9174 99.2514 10.0593L99.2518 10.0596ZM123.195 29.2118C123.381 29.4685 123.479 29.7791 123.473 30.0964C123.481 30.2943 123.446 30.4915 123.37 30.6741C123.293 30.8568 123.178 31.0205 123.031 31.1536C122.757 31.4124 122.395 31.5564 122.018 31.5561C121.78 31.5651 121.544 31.5129 121.331 31.4045C121.119 31.296 120.938 31.135 120.806 30.9368L114.76 22.8645L108.85 30.9235C108.719 31.1251 108.54 31.2904 108.328 31.4041C108.116 31.5177 107.879 31.5761 107.639 31.5737C107.462 31.5776 107.286 31.5451 107.123 31.4781C106.959 31.4112 106.811 31.3112 106.688 31.1846C106.565 31.0718 106.468 30.9351 106.401 30.7829C106.334 30.6306 106.299 30.4662 106.299 30.2999C106.305 29.9254 106.438 29.564 106.675 29.2737L113.053 20.591L106.644 11.9746C106.444 11.7229 106.333 11.4116 106.33 11.09C106.326 10.8926 106.363 10.6967 106.439 10.5146C106.515 10.3325 106.629 10.1684 106.772 10.0328C106.908 9.89306 107.07 9.78192 107.249 9.70595C107.428 9.62998 107.621 9.59073 107.816 9.59052C108.047 9.59167 108.276 9.64615 108.483 9.74972C108.703 9.85368 108.89 10.0139 109.028 10.2141L115.003 18.2419L120.922 10.2934C121.05 10.0941 121.224 9.92801 121.43 9.80886C121.635 9.68971 121.866 9.62083 122.103 9.60785C122.288 9.60884 122.471 9.64872 122.64 9.7249C122.81 9.80108 122.961 9.91187 123.084 10.0501C123.219 10.1703 123.327 10.3165 123.404 10.48C123.48 10.6435 123.521 10.8208 123.527 11.001C123.516 11.3206 123.408 11.6293 123.217 11.8856L116.723 20.5293L123.195 29.2118ZM145.642 10.0596C145.787 10.1914 145.901 10.353 145.978 10.5332C146.054 10.7133 146.09 10.9079 146.085 11.1035C146.09 11.2964 146.053 11.4882 145.977 11.6654C145.9 11.8426 145.786 12.001 145.642 12.1296C145.343 12.3831 144.96 12.5156 144.568 12.5012H139.03V29.9599C139.033 30.1571 138.996 30.353 138.92 30.535C138.844 30.717 138.73 30.8811 138.587 31.0169C138.274 31.2961 137.87 31.4504 137.451 31.4504C137.031 31.4504 136.627 31.2961 136.314 31.0169C136.171 30.8806 136.059 30.7164 135.982 30.5345C135.906 30.3526 135.869 30.157 135.872 29.9599V12.5012H130.347C129.954 12.5161 129.57 12.3782 129.277 12.1164C129.136 11.9826 129.026 11.8202 128.953 11.6403C128.881 11.4603 128.848 11.2668 128.856 11.073C128.85 10.8839 128.884 10.6957 128.957 10.521C129.029 10.3463 129.138 10.1891 129.277 10.06C129.57 9.79818 129.954 9.66026 130.347 9.67517H144.567C144.962 9.66083 145.347 9.79843 145.642 10.0596Z"
    fill="#6A6A6A"
  ></path>
  <path
    d="M152.45 30.8929C151.443 30.3225 150.605 29.4953 150.021 28.4956C149.848 28.2484 149.75 27.9567 149.738 27.6553C149.738 27.4625 149.78 27.272 149.861 27.0971C149.942 26.9221 150.06 26.7669 150.207 26.6423C150.46 26.3773 150.805 26.2191 151.171 26.2C151.446 26.2257 151.713 26.3081 151.954 26.4421C152.196 26.5761 152.406 26.7587 152.574 26.9784C152.913 27.5376 153.393 27.9982 153.966 28.3147C154.538 28.6313 155.184 28.7927 155.838 28.7831C156.373 28.7956 156.904 28.7002 157.401 28.5026C157.898 28.3051 158.35 28.0093 158.731 27.6331C159.114 27.2696 159.418 26.8301 159.622 26.3427C159.826 25.8553 159.926 25.3306 159.916 24.8023V11.1653C159.914 10.9662 159.954 10.7689 160.034 10.5866C160.114 10.4043 160.232 10.2412 160.38 10.1083C160.67 9.82274 161.062 9.66369 161.469 9.66588C161.672 9.65598 161.875 9.68819 162.065 9.76051C162.256 9.83282 162.429 9.94368 162.574 10.0861C162.713 10.2266 162.822 10.394 162.895 10.5781C162.967 10.7621 163.001 10.9589 162.995 11.1565V24.8242C163.006 26.0493 162.684 27.2543 162.061 28.3097C161.445 29.3614 160.559 30.2301 159.496 30.8265C158.381 31.4577 157.119 31.7813 155.838 31.7642C154.652 31.7768 153.483 31.4762 152.45 30.8929ZM173.84 31.1229C172.608 30.6549 171.477 29.9535 170.51 29.0572C170.313 28.9061 170.152 28.7129 170.04 28.4917C169.927 28.2705 169.866 28.027 169.859 27.7789C169.862 27.5897 169.902 27.403 169.978 27.2297C170.054 27.0565 170.164 26.9003 170.302 26.7704C170.433 26.6294 170.592 26.5173 170.768 26.4411C170.945 26.3649 171.136 26.3264 171.328 26.3281C171.656 26.3236 171.972 26.4456 172.213 26.6687C172.96 27.382 173.829 27.9557 174.778 28.3628C175.733 28.7425 176.754 28.9289 177.781 28.9113C178.952 28.9483 180.106 28.6323 181.094 28.0045C181.498 27.7774 181.836 27.4485 182.074 27.0504C182.311 26.6523 182.44 26.1989 182.448 25.7354C182.455 25.2371 182.335 24.7453 182.098 24.3069C181.861 23.8685 181.515 23.4983 181.094 23.2318C179.852 22.5023 178.489 22.0019 177.07 21.7545C175.269 21.4661 173.571 20.7265 172.133 19.6048C171.554 19.0892 171.098 18.4496 170.799 17.7337C170.501 17.0177 170.367 16.2437 170.408 15.4691C170.384 14.313 170.724 13.1786 171.381 12.2269C172.049 11.2823 172.969 10.5437 174.035 10.095C175.255 9.5804 176.569 9.32582 177.892 9.34746C179.133 9.33956 180.365 9.55067 181.533 9.97109C182.562 10.3184 183.506 10.8808 184.301 11.621C184.511 11.7757 184.684 11.9749 184.808 12.2043C184.932 12.4337 185.003 12.6876 185.018 12.9479C185.018 13.1335 184.98 13.3171 184.908 13.4881C184.836 13.659 184.73 13.8137 184.597 13.9432C184.47 14.0853 184.314 14.1985 184.139 14.2748C183.964 14.3511 183.775 14.3888 183.585 14.3854C183.324 14.3954 183.069 14.305 182.872 14.133C182.227 13.5277 181.464 13.0624 180.63 12.7663C179.766 12.4181 178.845 12.235 177.914 12.2266C176.748 12.1667 175.591 12.4663 174.601 13.0849C174.222 13.3358 173.912 13.6766 173.697 14.0768C173.482 14.477 173.369 14.9241 173.369 15.3784C173.369 15.8326 173.482 16.2798 173.697 16.6799C173.912 17.0801 174.222 17.4209 174.601 17.6718C175.734 18.3327 176.971 18.7965 178.259 19.0434C179.627 19.3127 180.962 19.7294 182.24 20.2864C183.204 20.7129 184.029 21.4028 184.62 22.2768C185.218 23.2815 185.508 24.4394 185.456 25.6074C185.473 26.7556 185.119 27.8787 184.447 28.8099C183.74 29.77 182.788 30.523 181.691 30.9905C180.486 31.5181 179.181 31.7835 177.865 31.7689C176.496 31.7943 175.133 31.5755 173.84 31.1229Z"
    fill="#A2A2A2"
  ></path>
  <path
    d="M13.4441 31.1936C13.4126 31.1379 13.3845 31.0803 13.36 31.0211C13.1903 30.6286 13.1381 30.1954 13.2096 29.7738H3.17347L18.0885 3.5265L22.985 12.1341L24.4048 9.62172L20.1365 2.1022C19.9319 1.71704 19.634 1.38931 19.27 1.149C18.9061 0.908697 18.4877 0.763476 18.0531 0.726624C17.6196 0.746474 17.2003 0.887577 16.8429 1.13389C16.4856 1.3802 16.2045 1.72184 16.0317 2.11996L0.922073 28.6857C0.696181 29.0608 0.565936 29.4857 0.542797 29.9229C0.519657 30.3602 0.604331 30.7964 0.789371 31.1933C1.0218 31.5597 1.35211 31.8537 1.74294 32.0422C2.13378 32.2306 2.56955 32.3059 3.00096 32.2596H15.6557C15.2243 32.3067 14.7883 32.2317 14.3973 32.0433C14.0063 31.8548 13.6761 31.5605 13.4441 31.1936Z"
    fill="#A2A2A2"
  ></path>
  <path
    d="M42.5414 28.6857L30.1255 6.81293C29.9219 6.42365 29.6234 6.09196 29.2578 5.84845C28.8921 5.60495 28.471 5.45749 28.0333 5.41968C27.6 5.43836 27.1808 5.57849 26.8233 5.82407C26.4659 6.06966 26.1847 6.4108 26.0119 6.80855L24.4062 9.62172L25.8349 12.1341L28.0462 8.21955L40.3298 29.7738H35.6589C35.7187 30.1301 35.6851 30.4958 35.5616 30.8353C35.5356 30.9103 35.503 30.9829 35.4642 31.0521L35.4244 31.1317C35.1706 31.4901 34.8324 31.7804 34.4398 31.9771C34.0471 32.1738 33.612 32.2707 33.173 32.2593H40.4801C40.9192 32.2711 41.3544 32.1744 41.7472 31.9777C42.1399 31.781 42.478 31.4904 42.7315 31.1317C42.9317 30.747 43.0199 30.3138 42.9863 29.8815C42.9527 29.4491 42.7985 29.0348 42.5414 28.6857Z"
    fill="#8A8A8A"
  ></path>
  <path
    d="M35.4237 31.1317L35.4635 31.0521C35.5023 30.9828 35.5349 30.9103 35.5609 30.8353C35.6844 30.4958 35.718 30.1301 35.6582 29.7738C35.5893 29.3895 35.4515 29.0208 35.2512 28.6856L25.8434 12.134L24.4059 9.6217L22.9772 12.134L13.5734 28.6861C13.3909 29.0252 13.2682 29.3933 13.2108 29.7742C13.1351 30.1945 13.1827 30.6277 13.3479 31.0215C13.3724 31.0807 13.4005 31.1383 13.4321 31.194C13.6646 31.5604 13.9949 31.8543 14.3858 32.0427C14.7766 32.2311 15.2124 32.3064 15.6438 32.26H33.1591C33.6003 32.273 34.0379 32.1768 34.433 31.9799C34.828 31.7831 35.1684 31.4917 35.4237 31.1317ZM24.4056 14.6464L33.0043 29.7738H15.8113L24.4056 14.6464Z"
    fill="#6A6A6A"
  ></path>
</svg>

<svg width="186" height="104" viewBox="0 0 186 104" fill="none" xmlns="http://www.w3.org/2000/svg"><path d="M72.178 94H70.54l-6.588-10.026V94h-1.638V81.31h1.638l6.588 10.044V81.31h1.638V94Zm11.418-9.882V94h-1.638v-2.322c-.252.804-.702 1.422-1.35 1.854-.636.42-1.38.63-2.232.63-1.14 0-2.064-.366-2.772-1.098-.708-.744-1.062-1.806-1.062-3.186v-5.76h1.638v5.598c0 .984.252 1.746.756 2.286.504.528 1.188.792 2.052.792.9 0 1.62-.288 2.16-.864.54-.588.81-1.44.81-2.556v-5.256h1.638ZM91.908 94l-2.574-3.78L87.012 94h-1.818l3.24-5.094-3.258-4.788h1.872l2.502 3.672 2.286-3.672h1.818l-3.222 4.968L93.78 94h-1.872Zm8.116-1.44V94H98.8c-1.008 0-1.764-.24-2.268-.72-.492-.48-.738-1.284-.738-2.412V85.54h-1.476v-1.422h1.476v-2.466h1.656v2.466h2.556v1.422H97.45v5.364c0 .636.114 1.074.342 1.314.24.228.648.342 1.224.342h1.008Zm12.62-11.25v9.432c0 1.044-.3 1.872-.9 2.484-.588.6-1.416.9-2.484.9-1.152 0-2.058-.336-2.718-1.008-.648-.684-.972-1.638-.972-2.862h1.638c0 .732.162 1.314.486 1.746.324.42.822.63 1.494.63.636 0 1.098-.18 1.386-.54.288-.36.432-.81.432-1.35V81.31h1.638Zm10.573 9.396c0 .6-.144 1.158-.432 1.674-.288.516-.726.936-1.314 1.26-.588.324-1.314.486-2.178.486-.84 0-1.59-.15-2.25-.45a4.187 4.187 0 0 1-1.566-1.26 3.661 3.661 0 0 1-.666-1.836h1.746a2.6 2.6 0 0 0 .36 1.062c.216.336.516.618.9.846.396.216.87.324 1.422.324.72 0 1.272-.192 1.656-.576.384-.384.576-.876.576-1.476 0-.516-.138-.936-.414-1.26a2.695 2.695 0 0 0-.99-.756c-.396-.192-.936-.396-1.62-.612a18.488 18.488 0 0 1-1.944-.738 3.483 3.483 0 0 1-1.242-1.062c-.336-.468-.504-1.086-.504-1.854 0-.66.156-1.242.468-1.746.324-.504.78-.894 1.368-1.17.6-.276 1.302-.414 2.106-.414 1.248 0 2.238.306 2.97.918a3.445 3.445 0 0 1 1.278 2.304h-1.764c-.096-.504-.354-.948-.774-1.332-.42-.384-.99-.576-1.71-.576-.66 0-1.188.174-1.584.522-.396.336-.594.816-.594 1.44 0 .492.126.894.378 1.206.264.3.588.54.972.72.384.168.912.36 1.584.576.816.264 1.47.516 1.962.756.504.24.93.606 1.278 1.098.348.48.522 1.122.522 1.926Z" fill="#A0A0A0"/><path d="M74.128 10.06a1.353 1.353 0 0 1 .376.982V29.92a1.518 1.518 0 0 1-.42 1.088 1.427 1.427 0 0 1-1.075.442c-.227 0-.452-.035-.668-.106a1.145 1.145 0 0 1-.513-.327l-12.23-15.924v14.99a1.327 1.327 0 0 1-1.367 1.367 1.27 1.27 0 0 1-.964-.39 1.353 1.353 0 0 1-.372-.977V11.165a1.435 1.435 0 0 1 .443-1.07 1.394 1.394 0 0 1 1.04-.42c.245-.001.488.045.716.137.207.08.389.215.526.39L71.797 26.16V11.042a1.326 1.326 0 0 1 1.367-1.367 1.283 1.283 0 0 1 .964.385Zm25.124 0c.264.294.404.68.39 1.074v11.943a8.94 8.94 0 0 1-1.089 4.423 7.91 7.91 0 0 1-3.003 3.066 8.475 8.475 0 0 1-4.309 1.123 8.63 8.63 0 0 1-4.357-1.101 7.883 7.883 0 0 1-3.016-3.066A8.94 8.94 0 0 1 82.78 23.1V11.156a1.429 1.429 0 0 1 .442-1.074 1.552 1.552 0 0 1 1.12-.443 1.455 1.455 0 0 1 1.043.443 1.414 1.414 0 0 1 .442 1.057V23.08a5.693 5.693 0 0 0 .748 2.91 5.369 5.369 0 0 0 4.666 2.721c.97.007 1.924-.24 2.769-.716a5.405 5.405 0 0 0 2.052-2.004c.514-.883.777-1.89.761-2.91V11.138a1.575 1.575 0 0 1 .372-1.075 1.327 1.327 0 0 1 1.03-.442 1.349 1.349 0 0 1 1.026.437Zm23.943 19.152c.186.256.284.567.278.884a1.36 1.36 0 0 1-.442 1.058 1.473 1.473 0 0 1-1.013.402 1.397 1.397 0 0 1-1.212-.62l-6.046-8.072-5.91 8.06a1.426 1.426 0 0 1-1.211.65 1.284 1.284 0 0 1-.951-.39 1.2 1.2 0 0 1-.389-.884c.006-.375.139-.736.376-1.026l6.378-8.683-6.409-8.616a1.444 1.444 0 0 1-.314-.885 1.419 1.419 0 0 1 .442-1.057 1.464 1.464 0 0 1 1.044-.442c.231 0 .46.055.667.159.22.104.407.264.545.464l5.975 8.028 5.919-7.949a1.504 1.504 0 0 1 1.181-.686 1.324 1.324 0 0 1 .981.443 1.336 1.336 0 0 1 .443.951 1.57 1.57 0 0 1-.31.885l-6.494 8.643 6.472 8.683Zm22.447-19.152a1.362 1.362 0 0 1 .443 1.043 1.338 1.338 0 0 1-.443 1.027 1.571 1.571 0 0 1-1.074.371h-5.538V29.96a1.42 1.42 0 0 1-.443 1.057 1.706 1.706 0 0 1-2.273 0 1.44 1.44 0 0 1-.442-1.057V12.5h-5.525a1.52 1.52 0 0 1-1.07-.385 1.361 1.361 0 0 1-.421-1.043 1.322 1.322 0 0 1 .421-1.013 1.52 1.52 0 0 1 1.07-.385h14.22c.395-.014.78.123 1.075.385Z" fill="#6A6A6A"/><path d="M152.45 30.893a6.555 6.555 0 0 1-2.429-2.397 1.575 1.575 0 0 1-.283-.84 1.328 1.328 0 0 1 .469-1.014c.253-.265.598-.423.964-.442a1.994 1.994 0 0 1 1.403.778 3.753 3.753 0 0 0 3.264 1.805 3.977 3.977 0 0 0 2.893-1.15 3.806 3.806 0 0 0 1.185-2.83V11.164a1.405 1.405 0 0 1 .464-1.057 1.54 1.54 0 0 1 1.089-.442 1.474 1.474 0 0 1 1.105.42 1.465 1.465 0 0 1 .421 1.07v13.668a6.736 6.736 0 0 1-.934 3.486 6.866 6.866 0 0 1-2.565 2.517 7.228 7.228 0 0 1-3.658.937 6.746 6.746 0 0 1-3.388-.871Zm21.39.23a10.258 10.258 0 0 1-3.33-2.066 1.656 1.656 0 0 1-.651-1.278 1.423 1.423 0 0 1 .443-1.009 1.39 1.39 0 0 1 1.026-.442c.328-.004.644.118.885.34a8.655 8.655 0 0 0 2.565 1.695c.955.38 1.976.566 3.003.548a5.833 5.833 0 0 0 3.313-.907c.404-.227.742-.556.98-.954a2.66 2.66 0 0 0 .374-1.315 2.917 2.917 0 0 0-1.354-2.503 12.023 12.023 0 0 0-4.024-1.477 10.804 10.804 0 0 1-4.937-2.15 5.177 5.177 0 0 1-1.725-4.136 5.505 5.505 0 0 1 .973-3.242 6.194 6.194 0 0 1 2.654-2.132 9.525 9.525 0 0 1 3.857-.748 10.55 10.55 0 0 1 3.641.624 7.655 7.655 0 0 1 2.768 1.65 1.77 1.77 0 0 1 .717 1.327 1.393 1.393 0 0 1-.421.995 1.324 1.324 0 0 1-1.012.442c-.261.01-.516-.08-.713-.252a6.41 6.41 0 0 0-2.242-1.367 7.445 7.445 0 0 0-2.716-.54 5.701 5.701 0 0 0-3.313.859 2.749 2.749 0 0 0-.904 3.595c.215.4.525.74.904.992 1.133.66 2.37 1.125 3.658 1.371a19.29 19.29 0 0 1 3.981 1.243 5.617 5.617 0 0 1 2.38 1.99 5.99 5.99 0 0 1 .836 3.331 5.338 5.338 0 0 1-1.009 3.203 6.67 6.67 0 0 1-2.756 2.18 9.285 9.285 0 0 1-3.826.779 11.536 11.536 0 0 1-4.025-.646ZM13.444 31.194a2.211 2.211 0 0 1-.235-1.42H3.174L18.088 3.526l4.897 8.608 1.42-2.512-4.268-7.52A2.609 2.609 0 0 0 18.053.727a2.32 2.32 0 0 0-2.021 1.393L.922 28.686a2.672 2.672 0 0 0-.133 2.507 2.326 2.326 0 0 0 2.212 1.067h12.655a2.32 2.32 0 0 1-2.212-1.066Z" fill="#A2A2A2"/><path d="M42.541 28.686 30.126 6.813a2.615 2.615 0 0 0-2.093-1.393 2.313 2.313 0 0 0-2.021 1.389l-1.606 2.813 1.429 2.512 2.211-3.914L40.33 29.774h-4.671c.06.356.026.722-.097 1.061a1.343 1.343 0 0 1-.098.217l-.04.08a2.674 2.674 0 0 1-2.251 1.127h7.307a2.67 2.67 0 0 0 2.252-1.127 2.319 2.319 0 0 0-.19-2.446Z" fill="#8A8A8A"/><path d="m35.424 31.132.04-.08c.038-.07.07-.142.097-.217.123-.34.157-.705.097-1.061a3.234 3.234 0 0 0-.407-1.088l-9.408-16.552-1.437-2.512-1.429 2.512-9.404 16.552a3.35 3.35 0 0 0-.362 1.088c-.076.42-.028.854.137 1.247.024.06.052.117.084.173a2.325 2.325 0 0 0 2.212 1.066h17.515a2.68 2.68 0 0 0 2.265-1.128ZM24.406 14.646l8.598 15.128H15.811l8.595-15.128Z" fill="#6A6A6A"/></svg>
